svg/u1f9e8.svg

<svg viewBox="0 0 128 128" xmlns="http://www.w3.org/2000/svg">
  <path d="M57.4,26.79c2.02-1.13,7.5-3.77,18.76,4.93s8.74,15.76,7.47,17.6c-1.49,2.17-10.88,9.74-10.88,9.74 l-51.94,64.15c0,0-3.88-0.47-9.08-4.07c-5.61-3.88-10.12-12.77-6.72-19.21C6.92,96.32,46.95,40.5,54.59,29.9 C55.28,28.95,55.95,27.6,57.4,26.79z" fill="#FE180A"/>
  <path d="M59.31,29.43c-2.54,2.4-1.16,8.31,7.01,13.82c8.41,5.68,13.95,4.87,15.56,2.67 c1.69-2.32-2.2-8.54-7.61-12.55C68.59,29.16,62.07,26.82,59.31,29.43z" fill="#A42615"/>
  <path d="M64.25,58.07l-44.64,64.88c0,0,3.65,1.21,6.59,1.09c4.1-0.16,6.28-1.94,6.28-1.94l42.73-61.7 L64.25,58.07z" fill="#CA1837"/>
  <path d="M46.9,40.59c0,0-0.95,4.06,5.66,10.67c3.31,3.31,5.65,5,7.57,6.13c1.95,1.14,3.38,1.74,3.38,1.74 l5.81-2l0.33-7.01c0,0-6.49-3.33-10.82-8.21c-5.61-6.33-4.61-9.88-4.34-11.89C53.52,31.2,46.9,40.59,46.9,40.59z" fill="#FDB700"/>
  <path d="M81.88,51.19l-7.26,10.1c0,0-1.23,0.82-5.59-0.21c-2.6-0.62-5.51-1.95-5.51-1.95l6.14-9 c0,0,3.64,1.67,6.57,1.92C79.05,52.28,81.88,51.19,81.88,51.19z" fill="#DE7F14"/>
  <path d="M8.62,94.47l-2.48,3.7c0,0-0.46,4.75,5.47,10.74c2.21,2.23,4.51,3.86,6.5,5.06 c3.31,2,5.78,2.76,5.78,2.76l1.76-2.46c0,0-2.29-0.79-4.75-2.3c-2.63-1.62-5.5-4.03-7.39-6.15C7.9,99.51,8.62,94.47,8.62,94.47z" fill="#FDB900"/>
  <path d="M37.33,115.09l-2.03,2.94c0,0-2.54,0.32-6.21-0.03c-2.25-0.21-5.23-1.28-5.23-1.28l1.71-2.49 c0,0,2.02,0.81,5.18,1.13S37.33,115.09,37.33,115.09z" fill="#DF7D15"/>
  <path d="M67.62,36.8c-0.21,1.12,0.64,2.41,2.09,3.31c1.44,0.91,3.26,0.16,3.37-0.64 c0.11-0.8,0.55-9.36,4.01-9.78c3.48-0.43,5.08,6.63,11.82,8.45c4.84,1.3,6.36,0.05,6.36,0.05l-0.64-3.85c0,0-2.02,1.28-6.04-0.96 c-4.22-2.35-6.15-8.88-12.24-8.29c-6.31,0.61-7.22,7.65-7.65,8.88C68.26,35.19,67.69,36.42,67.62,36.8z" fill="#D8A26D"/>
  <path d="M81.38,14.91c0.48,0.97,11.9,19.06,11.9,19.06s0.08,23.16,0.08,23.97c0,1.45,0.97,2.01,2.09,0.64 c0.62-0.76,9.65-15.76,9.65-15.76s15.28,6.27,16.41,6.84c1.13,0.56,1.77-0.16,1.13-1.53c-0.64-1.37-10.7-19.38-10.7-19.38 s9.81-13.99,10.37-15.12s-0.24-1.85-1.29-1.37c-1.05,0.48-13.19,6.51-13.19,6.51s-4.43-12.82-4.75-13.59 c-0.56-1.37-1.45-1.61-1.85,0.08s-4.42,15.68-4.42,15.68s-12.87-6.76-13.99-7.24S80.9,13.95,81.38,14.91z" fill="#FD8E02"/>
  <path d="M90.39,21.99l6.92,10.05l-0.16,16.41l6.27-11.18l11.66,6.03l-8.04-13.43l5.15-8.36 c0,0-6.59,3.7-6.76,3.3s-2.9-8.61-2.9-8.61l-2.73,9.57L90.39,21.99z" fill="#FFE268"/>
  <path d="M93.29,38.71l-0.02-4.03c0,0,2.41-0.35,4.66-2.7c1.96-2.06,3.43-4.82,5.13-2.41 c1.28,1.82-1.55,5.01-3.85,6.68C95.69,38.83,93.29,38.71,93.29,38.71z" fill="#FCBA03"/>
</svg>

<svg viewBox="0 0 128 128" xmlns="http://www.w3.org/2000/svg">
  <defs/>
  <path d="M57.4,26.79 C59.42,25.66 64.9,23.02 76.16,31.72 C87.42,40.42 84.9,47.48 83.63,49.32 C82.14,51.49 72.75,59.06 72.75,59.06 L20.81,123.21 C20.81,123.21 16.93,122.74 11.73,119.14 C6.12,115.26 1.61,106.37 5.01,99.93 C6.92,96.32 46.95,40.5 54.59,29.9 C55.28,28.95 55.95,27.6 57.4,26.79 Z" fill="#FE180A"/>
  <path d="M59.31,29.43 C56.77,31.83 58.15,37.74 66.32,43.25 C74.73,48.93 80.27,48.12 81.88,45.92 C83.57,43.6 79.68,37.38 74.27,33.37 C68.59,29.16 62.07,26.82 59.31,29.43 Z" fill="#A42615"/>
  <path d="M64.25,58.07 L19.61,122.95 C19.61,122.95 23.26,124.16 26.2,124.04 C30.3,123.88 32.48,122.1 32.48,122.1 L75.21,60.4 L64.25,58.07 Z" fill="#CA1837"/>
  <path d="M46.9,40.59 C46.9,40.59 45.95,44.65 52.56,51.26 C55.87,54.57 58.21,56.26 60.13,57.39 C62.08,58.53 63.51,59.13 63.51,59.13 L69.32,57.13 L69.65,50.12 C69.65,50.12 63.16,46.79 58.83,41.91 C53.22,35.58 54.22,32.03 54.49,30.02 C53.52,31.2 46.9,40.59 46.9,40.59 Z" fill="#FDB700"/>
  <path d="M81.88,51.19 L74.62,61.29 C74.62,61.29 73.39,62.11 69.03,61.08 C66.43,60.46 63.52,59.13 63.52,59.13 L69.66,50.13 C69.66,50.13 73.3,51.8 76.23,52.05 C79.05,52.28 81.88,51.19 81.88,51.19 Z" fill="#DE7F14"/>
  <path d="M8.62,94.47 L6.14,98.17 C6.14,98.17 5.68,102.92 11.61,108.91 C13.82,111.14 16.12,112.77 18.11,113.97 C21.42,115.97 23.89,116.73 23.89,116.73 L25.65,114.27 C25.65,114.27 23.36,113.48 20.9,111.97 C18.27,110.35 15.4,107.94 13.51,105.82 C7.9,99.51 8.62,94.47 8.62,94.47 Z" fill="#FDB900"/>
  <path d="M37.33,115.09 L35.3,118.03 C35.3,118.03 32.76,118.35 29.09,118 C26.84,117.79 23.86,116.72 23.86,116.72 L25.57,114.23 C25.57,114.23 27.59,115.04 30.75,115.36 C33.91,115.68 37.33,115.09 37.33,115.09 Z" fill="#DF7D15"/>
  <path d="M67.62,36.8 C67.41,37.92 68.26,39.21 69.71,40.11 C71.15,41.02 72.97,40.27 73.08,39.47 C73.19,38.67 73.63,30.11 77.09,29.69 C80.57,29.26 82.17,36.32 88.91,38.14 C93.75,39.44 95.27,38.19 95.27,38.19 L94.63,34.34 C94.63,34.34 92.61,35.62 88.59,33.38 C84.37,31.03 82.44,24.5 76.35,25.09 C70.04,25.7 69.13,32.74 68.7,33.97 C68.26,35.19 67.69,36.42 67.62,36.8 Z" fill="#D8A26D"/>
  <path d="M81.38,14.91 C81.86,15.88 93.28,33.97 93.28,33.97 C93.28,33.97 93.36,57.13 93.36,57.94 C93.36,59.39 94.33,59.95 95.45,58.58 C96.07,57.82 105.1,42.82 105.1,42.82 C105.1,42.82 120.38,49.09 121.51,49.66 C122.64,50.22 123.28,49.5 122.64,48.13 C122,46.76 111.94,28.75 111.94,28.75 C111.94,28.75 121.75,14.76 122.31,13.63 C122.87,12.5 122.07,11.78 121.02,12.26 C119.97,12.74 107.83,18.77 107.83,18.77 C107.83,18.77 103.4,5.95 103.08,5.18 C102.52,3.81 101.63,3.57 101.23,5.26 C100.83,6.95 96.81,20.94 96.81,20.94 C96.81,20.94 83.94,14.18 82.82,13.7 C81.7,13.22 80.9,13.95 81.38,14.91 Z" fill="#FD8E02"/>
  <path d="M90.39,21.99 L97.31,32.04 L97.15,48.45 L103.42,37.27 L115.08,43.3 L107.04,29.87 L112.19,21.51 C112.19,21.51 105.6,25.21 105.43,24.81 C105.26,24.41 102.53,16.2 102.53,16.2 L99.8,25.77 L90.39,21.99 Z" fill="#FFE268"/>
  <path d="M93.29,38.71 L93.27,34.68 C93.27,34.68 95.68,34.33 97.93,31.98 C99.89,29.92 101.36,27.16 103.06,29.57 C104.34,31.39 101.51,34.58 99.21,36.25 C95.69,38.83 93.29,38.71 93.29,38.71 Z" fill="#FCBA03"/>
</svg>
